Assets/Icons/interaction/shopping-cart-1.svg

<svg enable-background="new 0 0 60 60" viewBox="0 0 60 60" xmlns="http://www.w3.org/2000/svg"><path d="m22 40.5c-4.14 0-7.5 3.36-7.5 7.5s3.36 7.5 7.5 7.5 7.5-3.36 7.5-7.5-3.36-7.5-7.5-7.5zm0 12c-2.48 0-4.5-2.02-4.5-4.5s2.02-4.5 4.5-4.5 4.5 2.02 4.5 4.5-2.02 4.5-4.5 4.5z"/><path d="m44 40.5c-4.14 0-7.5 3.36-7.5 7.5s3.36 7.5 7.5 7.5 7.5-3.36 7.5-7.5-3.36-7.5-7.5-7.5zm0 12c-2.48 0-4.5-2.02-4.5-4.5s2.02-4.5 4.5-4.5 4.5 2.02 4.5 4.5-2.02 4.5-4.5 4.5z"/><path d="m56.26 12.5h-43.09l-1.62-6.48c-.22-.9-1.02-1.52-1.94-1.52h-7.11c-.28 0-.5.22-.5.5 0 1.38 1.12 2.5 2.5 2.5h4.33l1.71 6.83 3.23 14.22c1.19 5.24 5.84 8.95 11.21 8.95h22.68c.81 0 1.54-.49 1.85-1.24l8.59-21c.54-1.32-.42-2.76-1.84-2.76zm-9.27 22h-22.01c-4 0-7.4-2.72-8.29-6.62l-2.81-12.38h40.89z"/></svg>

<?xml version="1.0" encoding="utf-8"?>
<!-- Generator: Adobe Illustrator 21.1.0, SVG Export Plug-In . SVG Version: 6.00 Build 0)  -->
<svg version="1.1" id="eps" xmlns="http://www.w3.org/2000/svg" xmlns:xlink="http://www.w3.org/1999/xlink" x="0px" y="0px"
	 viewBox="0 0 60 60" style="enable-background:new 0 0 60 60;" xml:space="preserve">
<g>
	<path d="M22,40.5c-4.14,0-7.5,3.36-7.5,7.5s3.36,7.5,7.5,7.5s7.5-3.36,7.5-7.5S26.14,40.5,22,40.5z M22,52.5
		c-2.48,0-4.5-2.02-4.5-4.5s2.02-4.5,4.5-4.5s4.5,2.02,4.5,4.5S24.48,52.5,22,52.5z"/>
	<path d="M44,40.5c-4.14,0-7.5,3.36-7.5,7.5s3.36,7.5,7.5,7.5s7.5-3.36,7.5-7.5S48.14,40.5,44,40.5z M44,52.5
		c-2.48,0-4.5-2.02-4.5-4.5s2.02-4.5,4.5-4.5s4.5,2.02,4.5,4.5S46.48,52.5,44,52.5z"/>
	<path d="M56.26,12.5H13.17l-1.62-6.48c-0.22-0.9-1.02-1.52-1.94-1.52H2.5C2.22,4.5,2,4.72,2,5c0,1.38,1.12,2.5,2.5,2.5h4.33
		l1.71,6.83l3.23,14.22c1.19,5.24,5.84,8.95,11.21,8.95h22.68c0.81,0,1.54-0.49,1.85-1.24l8.59-21
		C58.64,13.94,57.68,12.5,56.26,12.5z M46.99,34.5H24.98c-4,0-7.4-2.72-8.29-6.62L13.88,15.5h40.89L46.99,34.5z"/>
</g>
</svg>
